addons/godot-flexbox/assets/dark/JustifyContentEndColumnIcon.svg

<svg xmlns="http://www.w3.org/2000/svg" width="16" height="16" fill="none" data-wf-icon="JustifyContentEndColumnIcon" viewBox="0 0 24 24"><path fill="#d6d6d6" d="M6 7.5h12v6H6v-6ZM6 15h12v6H6v-6ZM24 22.5H0V24h24v-1.5Z"/></svg>

<svg data-wf-icon="JustifyContentEndColumnIcon" width="16" height="16" viewBox="0 0 24 24" fill="none" xmlns="http://www.w3.org/2000/svg"><path d="M6 7.5H18V13.5H6V7.5Z" fill="#d6d6d6"></path><path d="M6 15H18V21H6V15Z" fill="#d6d6d6"></path><path d="M24 22.5H0V24H24V22.5Z" fill="#d6d6d6"></path></svg>
